!!!XEN: War song
!!!AGN: Song of the drum-presentation ceremony
!!!COM: Anonymous
!!!CNT: Native American -- Ojibway
!!!TXO: Ojibway
!!!MLC: Lac du Flambeau reservation, northern Wisconsin, U.S.A.
!!!MRD: 1909-1912///
!!!MPN: E'niwub'e ("Sits farther along")
**kern
*MM116
*Imale
*k[f#c#g#d#a#]
*clefF4
*M2/4
16d#
=1
12d#
12c#
12c#
16B
8.A#
=2
*M3/4
12B
12A#
12A#
4.G#
8E
=3
*M2/4
4G#
8G#
8G#
=4
4G#
4G#
=5
4.G#
8G#
=6
*M3/4
[2G#
8.G#]
16A#
=7
*M2/4
12A#
12G#
12G#
16G#
8.G#
=8
*M3/4
12A#
12G#
12G#
4.G#
8E
=9
*M2/4
4G#
8G#
8G#
=10
8.E
16D#
8.D#
16G#
=11
8G#
8G#
8E
8D#
=12
*M3/4
12E
12D#
12D#
4.D#
8B
=13
*M2/4
4D#
8D#
8BB
=14
12b
12a#
12a#
4g#
=15
8b
8b
8b
8b
=16
12b
12a#
12a#
4g#
=17
4.g#
8g#
=18
4..g#
==
*-
!!!OCL: Frances Densmore
!!!YOR: Chippewa [i.e., Ojibway] Music--II, Bulletin 53 of the Bureau of American Ethnology, Smitsonian Institution
!!!ONM: 65
!!!PPG: 160
!!!PUB: published
!!!PPR: Government Printing Office
!!!PPP: Washington, D.C.
!!!PDT: 1912///
!!!EST: missing clef changes, text, drum tempo, and drum part
!!!YEC: Copyright 1998 Paul von Hippel
!!!YEM: Rights to all derivate electronic formats reserved.
!!!EFL: 28/42
